static/assets/img/icons/theme/tools/hummer.svg

<svg height="24" viewBox="0 0 24 24" width="24" xmlns="http://www.w3.org/2000/svg"><g fill="none" fill-rule="evenodd"><path d="m0 0h24v24h-24z" opacity="0"/><g fill="#000"><path d="m18.4246212 12.6464466 2.8284271-2.82842712c.1952622-.19526214.5118447-.19526214.7071068 0l.7071068.70710682c.1952621.1952621.1952621.5118446 0 .7071067l-2.8284271 2.8284272c-.1952622.1952621-.5118447.1952621-.7071068 0l-.7071068-.7071068c-.1952621-.1952622-.1952621-.5118446 0-.7071068zm-15.20279579 5.3033009 9.89949489-9.89949497c.3905243-.39052429 1.0236893-.39052429 1.4142136 0l1.4142136 1.41421356c.3905243.3905243.3905243 1.02368931 0 1.41421361l-9.89949497 9.8994949c-.39052429.3905243-1.02368927.3905243-1.41421356 0l-1.41421356-1.4142136c-.39052429-.3905243-.39052429-1.0236892 0-1.4142135z" opacity=".3"/><path d="m12.3890873 1.28248558c2.7614237 0 5 2.23857625 5 5v4.50000002c0 .2761424-.2238576.5-.5.5h-4c-.2761424 0-.5-.2238576-.5-.5z" transform="matrix(.70710678 -.70710678 .70710678 .70710678 -.081476 12.368272)"/></g></g></svg>

<svg width="24px" height="24px" viewBox="0 0 24 24" version="1.1" xmlns="http://www.w3.org/2000/svg" xmlns:xlink="http://www.w3.org/1999/xlink">
    <title>Icon For Hummer</title>
    <g stroke="none" stroke-width="1" fill="none" fill-rule="evenodd">
        <rect opacity="0" x="0" y="0" width="24" height="24"></rect>
        <path d="M18.4246212,12.6464466 L21.2530483,9.81801948 C21.4483105,9.62275734 21.764893,9.62275734 21.9601551,9.81801948 L22.6672619,10.5251263 C22.862524,10.7203884 22.862524,11.0369709 22.6672619,11.232233 L19.8388348,14.0606602 C19.6435726,14.2559223 19.3269901,14.2559223 19.131728,14.0606602 L18.4246212,13.3535534 C18.2293591,13.1582912 18.2293591,12.8417088 18.4246212,12.6464466 Z M3.22182541,17.9497475 L13.1213203,8.05025253 C13.5118446,7.65972824 14.1450096,7.65972824 14.5355339,8.05025253 L15.9497475,9.46446609 C16.3402718,9.85499039 16.3402718,10.4881554 15.9497475,10.8786797 L6.05025253,20.7781746 C5.65972824,21.1686989 5.02656326,21.1686989 4.63603897,20.7781746 L3.22182541,19.363961 C2.83130112,18.9734367 2.83130112,18.3402718 3.22182541,17.9497475 Z" fill="#000000" opacity="0.3"></path>
        <path d="M12.3890873,1.28248558 L12.3890873,1.28248558 C15.150511,1.28248558 17.3890873,3.52106183 17.3890873,6.28248558 L17.3890873,10.7824856 C17.3890873,11.058628 17.1652297,11.2824856 16.8890873,11.2824856 L12.8890873,11.2824856 C12.6129449,11.2824856 12.3890873,11.058628 12.3890873,10.7824856 L12.3890873,1.28248558 Z" fill="#000000" transform="translate(14.889087, 6.282486) rotate(-45.000000) translate(-14.889087, -6.282486) "></path>
    </g>
</svg>
